X:7812
T:Up To Your Knees In Sand
O:england
R:Reel
M:4/4
L:1/8
K:Em
G2> GF GABc | dBeB dBAF | DFAF BFAF | DFAF BFAF |
G2 {A}GF GABc | dBeB dBAF | (3Bcd ec dBAF | DE{F}ED E3 D :|
G ~B3 GB E2 | F ~A3 FA D2 | G ~B3 GBEB | AFDF E2 ED |
G ~B3 GBED | F ~A3 FADE | G2 {A}GF GB=dc | AFDF E4 :|
